img/animation-user.svg

<svg fill="none" height="84" viewBox="0 0 84 84" width="84" xmlns="http://www.w3.org/2000/svg"><circle cx="42" cy="42" fill="#151923" r="41" stroke="#303644" stroke-width="2"/><path d="m6 31-3.51192.5853c-1.43576.2393-2.48808 1.4815-2.48808 2.9371 0 1.6445 1.33312 2.9776 2.9776 2.9776h21.9073c1.7204 0 3.1151-1.3947 3.1151-3.1151 0-1.4074-.9437-2.6399-2.3023-3.0071l-13.3787-3.6159c-1.6636-.4496-2.819-1.4847-2.819-3.208 0-1.0115-.40184-2.4557-1.11713-3.171l-2.2113-2.2113c-.75014-.7502-1.17157-1.7676-1.17157-2.8285v-9.80816c0-.98816.36577-1.94136 1.02682-2.67585l2.28145-2.53495c.75857-.842854 1.83923-1.32414 2.97313-1.32414h6.7961c1.2151 0 2.3644.552359 3.1235 1.50122l1.9225 2.40312c.5674.70926.8765 1.5905.8765 2.49878v10.29618c0 .8453-.2678 1.669-.7651 2.3527l-3.2349 4.448" stroke="#00ce7c" stroke-linecap="round" stroke-width="4" transform="translate(28 22.5)"/></svg>

<svg width="84" height="84" viewBox="0 0 84 84" fill="none" xmlns="http://www.w3.org/2000/svg">
<circle cx="40" cy="40" r="41" transform="translate(2 2)" fill="#151923" stroke="#303644" stroke-width="2"/>
<path d="M6 31L2.48808 31.5853C1.05232 31.8246 0 33.0668 0 34.5224V34.5224C0 36.1669 1.33312 37.5 2.9776 37.5H24.8849C26.6053 37.5 28 36.1053 28 34.3849V34.3849C28 32.9775 27.0563 31.745 25.6977 31.3778L12.319 27.7619C10.6554 27.3123 9.5 26.2772 9.5 24.5539V24.5539C9.5 23.5424 9.09816 22.0982 8.38287 21.3829L6.17157 19.1716C5.42143 18.4214 5 17.404 5 16.3431V6.53494C5 5.54678 5.36577 4.59358 6.02682 3.85909L8.30827 1.32414C9.06684 0.481286 10.1475 0 11.2814 0H18.0775C19.2926 0 20.4419 0.552359 21.201 1.50122L23.1235 3.90434C23.6909 4.6136 24 5.49484 24 6.40312V16.6993C24 17.5446 23.7322 18.3683 23.2349 19.052L20 23.5" transform="translate(28 22.5)" stroke="#00CE7C" stroke-width="4" stroke-linecap="round"/>
</svg>
